icons/bicepparam.svg

<svg width="16" height="16" viewBox="0 0 16 16" fill="none" xmlns="http://www.w3.org/2000/svg">
<path fill-rule="evenodd" clip-rule="evenodd" d="M4.84539 9.52727L5.56531 7.72748L4.2659 9.35174C4.46958 9.38009 4.66455 9.4404 4.84539 9.52727ZM5.72333 10.3333C5.89863 10.6294 6 10.9719 6 11.3333C6 11.7692 5.85261 12.1774 5.60594 12.51C6.14317 12.5594 6.75479 12.615 7.38021 12.6706C8.17396 12.7411 8.97258 12.81 9.66649 12.8664C9.45508 12.5155 9.33333 12.1049 9.33333 11.6667C9.33333 11.1715 9.48875 10.7116 9.75333 10.3333H5.72333ZM11.6667 9.33333C12.9333 9.33333 14 10.4 14 11.6667C14 12.9333 12.9333 14 11.6667 14C11.6622 14 11.6576 14 11.6531 14C10.6053 13.9942 3.66667 13.3333 3.66667 13.3333C2.73333 13.2 2 12.3333 2 11.3333C2 11.1476 2.03168 10.9513 2.08664 10.7613C2.16976 10.4738 2.30613 10.2007 2.46667 10L6.46667 5L5.86667 4L7.33333 2H9.53333L10 3H8L7.33333 4L8 5H10L9.53333 6H7.33333L6 9.33333H11.6667ZM11.6667 13C12.4 13 13 12.4 13 11.6667C13 10.9333 12.4 10.3333 11.6667 10.3333C10.9333 10.3333 10.3333 10.9333 10.3333 11.6667C10.3333 12.4 10.9333 13 11.6667 13ZM3.04234 11.0564C3.01487 11.145 3 11.2381 3 11.3333C3 11.8667 3.46667 12.3333 4 12.3333C4.53333 12.3333 5 11.8667 5 11.3333C5 10.8 4.53333 10.3333 4 10.3333C3.56187 10.3333 3.16874 10.6483 3.04234 11.0564Z" fill="#DF9947"/>
</svg>

<svg xmlns="http://www.w3.org/2000/svg" width="16" height="16" fill="none"><path fill="#DF9947" fill-rule="evenodd" d="m4.845 9.527.72-1.8-1.3 1.625c.205.028.4.088.58.175Zm.878.806c.176.296.277.639.277 1 0 .436-.147.844-.394 1.177.537.05 1.149.105 1.774.16.794.071 1.593.14 2.286.196a2.32 2.32 0 0 1 .087-2.533h-4.03Zm5.944-1C12.933 9.333 14 10.4 14 11.667 14 12.933 12.933 14 11.667 14h-.014c-1.048-.006-7.986-.667-7.986-.667-.934-.133-1.667-1-1.667-2 0-.185.032-.382.087-.572.083-.287.22-.56.38-.761l4-5-.6-1 1.466-2h2.2L10 3H8l-.667 1L8 5h2l-.467 1h-2.2L6 9.333h5.667Zm0 3.667C12.4 13 13 12.4 13 11.667c0-.734-.6-1.334-1.333-1.334-.734 0-1.334.6-1.334 1.334 0 .733.6 1.333 1.334 1.333Zm-8.625-1.944a.934.934 0 0 0-.042.277c0 .534.467 1 1 1 .533 0 1-.466 1-1 0-.533-.467-1-1-1-.438 0-.831.315-.958.723Z" clip-rule="evenodd"/></svg>
